X:18380
T:Walls of Liscarrol, The
R:jig
H:Played in Ddor or Edor
D:Chieftains 1
Z:id:hn-jig-187
M:6/8
K:Ddor
dcA AGE|GED D2E|GEE cEE|GAB cde|dcA AGE|GED D2E|GEE cEE|DED D2d:|
dAd ecA|dAd ecA|GEE cEE|GAB cde|dAd ecA|dAd ecA|GEE cEE|DED D2d:|
